svgs/sharp-regular/luchador-mask.svg

<svg xmlns="http://www.w3.org/2000/svg" viewBox="0 0 448 512"><!--! Font Awesome Pro 6.6.0 by @fontawesome - https://fontawesome.com License - https://fontawesome.com/license (Commercial License) Copyright 2024 Fonticons, Inc. --><path d="M400 224c0-97.2-78.8-176-176-176S48 126.8 48 224l0 240 352 0 0-240zM0 224C0 100.3 100.3 0 224 0S448 100.3 448 224l0 240 0 48-48 0L48 512 0 512l0-48L0 224zM128 384c0 17.7 14.3 32 32 32l128 0c17.7 0 32-14.3 32-32s-14.3-32-32-32l-128 0c-17.7 0-32 14.3-32 32zm-32 0c0-29.8 20.4-54.9 48-62l0-34c-44.2 0-80-35.8-80-80l0-16 0-32 32 0 48 0c44.2 0 80 35.8 80 80c0-44.2 35.8-80 80-80l48 0 32 0 0 32 0 16c0 44.2-35.8 80-80 80l0 34c27.6 7.1 48 32.2 48 62c0 35.3-28.7 64-64 64l-128 0c-35.3 0-64-28.7-64-64zm80-80l0 16 96 0 0-16-16-16-32-32-32 32-16 16zm82.7-80c-1.8 5-2.7 10.4-2.7 16l0 16 32 0 16 0c20.9 0 38.7-13.4 45.3-32c1.8-5 2.7-10.4 2.7-16l0-16-32 0-16 0c-20.9 0-38.7 13.4-45.3 32zM144 192l-16 0-32 0 0 16c0 5.6 1 11 2.7 16c6.6 18.6 24.4 32 45.3 32l16 0 32 0 0-16c0-5.6-1-11-2.7-16c-6.6-18.6-24.4-32-45.3-32z"/></svg>

<svg xmlns="http://www.w3.org/2000/svg" viewBox="0 0 448 512"><!--! Font Awesome Pro 6.5.2 by @fontawesome - https://fontawesome.com License - https://fontawesome.com/license (Commercial License) Copyright 2024 Fonticons, Inc. --><path d="M400 224c0-97.2-78.8-176-176-176S48 126.8 48 224V464H400V224zM0 224C0 100.3 100.3 0 224 0S448 100.3 448 224V464v48H400 48 0V464 224zM128 384c0 17.7 14.3 32 32 32H288c17.7 0 32-14.3 32-32s-14.3-32-32-32H160c-17.7 0-32 14.3-32 32zm-32 0c0-29.8 20.4-54.9 48-62V288c-44.2 0-80-35.8-80-80V192 160H96h48c44.2 0 80 35.8 80 80c0-44.2 35.8-80 80-80h48 32v32 16c0 44.2-35.8 80-80 80v34c27.6 7.1 48 32.2 48 62c0 35.3-28.7 64-64 64H160c-35.3 0-64-28.7-64-64zm80-80v16h96V304l-16-16-32-32-32 32-16 16zm82.7-80c-1.8 5-2.7 10.4-2.7 16v16h32 16c20.9 0 38.7-13.4 45.3-32c1.8-5 2.7-10.4 2.7-16V192H320 304c-20.9 0-38.7 13.4-45.3 32zM144 192H128 96v16c0 5.6 1 11 2.7 16c6.6 18.6 24.4 32 45.3 32h16 32V240c0-5.6-1-11-2.7-16c-6.6-18.6-24.4-32-45.3-32z"/></svg>
